!!!COM: Corelli, Arcangelo
!!!OPR: Sonata da chiesa
!!!OPS: 3
!!!ONM: 12
!!!OMV: 7
!!!OMD: Allegro
**kern	**fb	**kern	**kern
*part3	*part3	*part2	*part1
*staff3	*	*staff2	*staff1
*I"Violone & Organo	*	*I"Violino II	*I"Violino I
*clefF4	*	*clefG2	*clefG2
*k[f#c#]	*	*k[f#c#]	*k[f#c#]
*D:	*	*D:	*D:
*M6/8	*	*M6/8	*M6/8
*MM152	*	*MM152	*MM152
=1	=1	=1	=1
2.r	.	2.r	8r
.	.	.	8cc#L
.	.	.	8aJ
.	.	.	8ddL
.	.	.	8b
.	.	.	8eeJ
=2	=2	=2	=2
2.r	.	2.r	8a
.	.	.	4.aa
.	.	.	4gg#X
=3	=3	=3	=3
2.r	.	4r	8aaL
.	.	.	8cc#
.	.	8r	8aJ
.	.	8r	8b
.	.	8g#XL	[4ee
.	.	8eJ	.
=4	=4	=4	=4
2.r	.	8aL	8ee]
.	.	8f#	4dd#X
.	.	8bJ	.
.	.	8e	8eeL
.	.	[4ee	8b
.	.	.	8g#XJ
=5	=5	=5	=5
2.r	.	8ee]	8aL
.	.	4dd#X	8f#
.	.	.	8bJ
.	.	8eeL	8e
.	.	8gg#X	[4ee
.	.	8eeJ	.
=6	=6	=6	=6
2r	.	8aaL	8ee]
.	.	8ff#	4.dd
.	.	8bbJ	.
.	.	8ee	.
8C#L	6	[4aa	4cc#
8AAJ	.	.	.
=7	=7	=7	=7
8DL	6 5	8aa]	4.b
8BB	#6\	4gg#X	.
8EJ	.	.	.
8AA	.	8aaL	8cc#L
[4A	5	8ee	8cc#
.	6	8ff#J	8ddJ
=8	=8	=8	=8
8A]	4 2	8ddL	8b
4G#X	5	8b	4.b
.	6	8eeJ	.
8AL	9	4.cc#	.
8C#	6	.	[4a
8AAJ	.	.	.
=9	=9	=9	=9
8EL	5 4	4.b	8a]
8G#X	6	.	4.g#X
8EJ	.	.	.
8F#L	9	4.a	.
8BB	7 #	.	4f#
8BJ	.	.	.
=10	=10	=10	=10
8E	#	4.g#X	8r
4.e	5	.	8bbL
.	6	.	8eeJ
.	4 2	4.f#	8aaL
[4d	5	.	8ff#
.	6	.	8bbJ
=11	=11	=11	=11
8dL]	#4| 2	8r	8ee
8c#	6	8eeL	4.aa
8AJ	.	8cc#J	.
8BL	7	8ddL	.
8e	7 #	8b	4gg#X
8EJ	.	8eeJ	.
=12	=12	=12	=12
4F#	5	8a	8r
.	6	4.dd	8ff#L
8F#	.	.	8ddJ
8GL	6 5	.	8eeL
8A	3	4cc#	8a
8AAJ	.	.	8aaJ
=13	=13	=13	=13
4D	3	8ddL	8ff#L
.	6 #4|	8ee	8gg#XJ
8AA	.	8cc#J	4aa
4E	5 4	4b	.
.	#	.	[4gg#
8E#X	6 5	8b	.
=14	=14	=14	=14
8F#L	#9\	4a	8gg#L]
8A	6	.	8cc#J
8F#J	.	8a	4ff#
8c#L	5 4	4g#X	.
8Eni	.	.	8bL
8C#J	.	8g#	[8eeJ
=15	=15	=15	=15
8DL	9	4f#	8eeL]
8F#	6	.	8aJ
8DJ	.	8b	4dd
8EL	7 #	8g#XL	.
8A	.	8e	8cc#L
8C#J	6	[8eeJ	8eeJ
=16	=16	=16	=16
4D	9	8eeL]	4ff#
.	8	8a	.
8D	.	8ddJ	8ff#
4E	7 #	4dd	8gg#XL
.	.	.	8ee
8F#	5	[8cc#	8aaJ
=17	=17	=17	=17
8DL	7 5	8cc#]	8a
8E	#	4b	4g#X
8EEJ	.	.	.
4AA	.	8aL	4.a
.	.	8cc#	.
8A	.	8aJ	.
=18	=18	=18	=18
4G#X	6	8eeL	2r
.	.	8gg#X	.
8c#	.	8eeJ	.
8F#L	7	4.aa	.
8B	7 #	.	8ff#L
8BBJ	.	.	8dd#XJ
=19	=19	=19	=19
4E	9 #	2r	8gg#XL
.	8	.	8ee
8E	.	.	8gg#J
4A	9 5	.	8cc#
.	8 6	8ff#L	[4aa
8A	.	8aaJ	.
=20	=20	=20	=20
8BL	7 #	8dd#XL	8aaL]
8c#	#5\	8ee	8gg#X
8G#XJ	.	8gg#XJ	8bbJ
8AL	.	8cc#L	4aa
8B	#	8dd#	.
8c#J	#5\	[8eeJ	[8gg#
=21	=21	=21	=21
8AL	#7	8ee]	8gg#]
8B	#	4dd#X	4ff#
8BBJ	.	.	.
8E	#	8eeL	4.gg#X
[4e	5	8g#X	.
.	6	8eJ	.
=22	=22	=22	=22
8e]	4 2	8aL	2r
4.d	6	8f#	.
.	#4| 2	8bJ	.
.	.	8e	.
8c#L	6	[4a	8eeL
8AJ	.	.	8cc#J
=23	=23	=23	=23
8BL	7	8a]	8ddL
8e	#	4g#X	8b
8EJ	.	.	8eeJ
8r	.	8r	8a
8F#L	6	8aaL	[4dd
8DJ	.	8ff#J	.
=24	=24	=24	=24
8EL	7	8ggniL	8dd]
8A	3	8ee	4cc#
8AAJ	.	8aaJ	.
8D	.	8ff#L	8r
[4d	5	8dd	8ff#L
.	6	8f#J	8ddJ
=25	=25	=25	=25
8dL]	#4| 2	8g#XL	8ee
8c#	6	8ee	4.a
8AJ	.	8cc#J	.
8BL	7	4dd	.
8e	7 #	.	8g#XL
8EJ	.	[8b	8eJ
=26	=26	=26	=26
8AL	9	8b]	4.cc#
8C#	6	4.a	.
8AAJ	.	.	.
8EL	5 4	.	4.b
8E#X	6 5 #	[4g#X	.
8C#J	.	.	.
=27	=27	=27	=27
8F#L	9	8g#]	4a
8A	6	4.f#	.
8F#J	.	.	8cc#
8BL	#6\ 5	.	8dd
8c#	#	4e#X	4g#X
8C#J	.	.	.
=28	=28	=28	=28
4F#	5	4f#	8f#
.	6	.	4.dd
8F#	.	8a	.
8G#X	5	8bL	.
[4A	5	8eeni	8cc#L
.	6	8cc#J	8aJ
=29	=29	=29	=29
8AL]	4 2	8ddL	8bL
8G#X	6	8b	8eJ
8EJ	.	8g#XJ	4ee
8F#L	7	8aL	.
8BB	-	8ff#	8ddL
[8BJ	.	8ddJ	8bJ
=30	=30	=30	=30
8BL]	4 2	8eeL	8cc#L
8A	6	8cc#	8f#J
8F#J	.	8aJ	4ff#
8G#XL	7	8bL	.
8C#	#5\	8gg#X	8eeL
[8c#J	.	8eeJ	8cc#J
=31	=31	=31	=31
8c#L]	4 2	4ff#	4dd
8B	#6\	.	.
8G#XJ	.	4bb	8b
4A	9 5	.	8cc#L
.	8 6	[4aa	8ff#
8A	5	.	8cc#J
=32	=32	=32	=32
8BL	7 #	8aaL]	8dd#X
8c#	#5\	8gg#X	4.ee
8AJ	6 5	8ff#J	.
8B	6 4	8gg#	.
4BB	5 #	4ff#	4dd#
=33	=33	=33	=33
8EL	#	4ee	8ee
8C#	6	.	4.aa
8AAJ	.	2r	.
8DL	6 5	.	.
8BB	#6\	.	16bbLL
.	.	.	16aaJ
8EJ	#	.	8gg#XJ
=34	=34	=34	=34
4AA	9	8r	8ccc#L
.	8	4.aa	8aa
8A	.	.	8ccc#J
4E	5 4	.	[4.bb
.	.	16bbLL	.
.	.	16aaJ	.
8E	#	8gg#XJ	.
=35	=35	=35	=35
4AA	9	8ccc#L	8bbL]
.	8	8aa	16ccc#L
.	.	.	16bbJ
8AA	.	8ccc#J	8aaJ
4E	5 4	4.bb	8aa
.	#3	.	[4gg#X
8E#X	6 5	.	.
=36	=36	=36	=36
4F#	#9\	4.aa	8gg#L]
.	8	.	16aaL
.	.	.	16gg#XJ
8AA	6	.	[8ff#J
8BB	#6\ 5	4.gg#X	8ff#]
4C#	#	.	4ee#X
=37	=37	=37	=37
8FF#L	5	4ff#	8ff#
8F#	6	.	4.dd
8G#XJ	5	8r	.
4A	5 4	4.ee	.
.	.	.	16eeniLL
.	.	.	16ddJ
8A	3	.	[8cc#J
=38	=38	=38	=38
4B	9	2dd	8cc#L]
.	8	.	8f#
8G#X	5	.	8bJ
4A	5 4	.	8e
.	3	8cc#L	[4a
8AA	6	8ff#J	.
=39	=39	=39	=39
4E	5 4	8b	8aL]
.	#	.	.
.	.	4.ee	8g#X
8C#	6	.	8cc#J
4D	9	.	8f#
.	8	8aL	[4ff#
8D	.	8ddJ	.
=40	=40	=40	=40
8EL	9 #	8g#X	8ff#L]
8A	5	4.cc#	8ee
8c#J	6	.	8aJ
4F#	6 5	.	[4.dd
.	.	8f#L	.
8G#X	5	8bJ	.
=41	=41	=41	=41
8AL	5 4	8e	8ddL]
8C#	6	4.a	16eeL
.	.	.	16ddJ
8AAJ	.	.	8cc#J
8DL	6 5	.	8ff#
8E	#	4g#X	4b
8EEJ	.	.	.
=42	=42	=42	=42
4AA	.	8a	4a
.	.	4.ee	.
8C#	6	.	8r
4D	9	.	[4.ff#
.	.	8aL	.
8D	8	8ddJ	.
=43	=43	=43	=43
8EL	9 #	8g#X	8ff#L]
8A	5	4.cc#	8ee
8c#J	6	.	8aJ
4F#	6 5	.	[4.dd
.	.	8f#L	.
8G#X	5	8bJ	.
=44	=44	=44	=44
8AL	5 4	8e	8ddL]
8C#	6	4.a	16eeL
.	.	.	16ddJ
8AAJ	.	.	8cc#J
8DL	6 5	.	8ff#
8E	#	4g#X	4b
8EEJ	.	.	.
=45	=45	=45	=45
4AA	.	4a	4a
8C#	6	4a	8ee
8D	6 5	.	8ff#
4E	#	4g#X	4b
=46	=46	=46	=46
4.AA	.	4.a	4.a
4.r	.	4.r	4.r
=:|!	=:|!	=:|!	=:|!
*-	*-	*-	*-
!!!system-decoration: [{s1,s2},s3]
!!!YEM: CC BY-NC-SA 4.0; CCARH; DCML
!!!RDF**kern: i = editorial accidental